X: 21113
T: L. MAUCHLINE'S REEL
R: reel
B: K\"ohler's Violin Repository, v.2, 1885 p.111 #3
F: http://www.archive.org/details/klersviolinrepos02rugg
Z: 2012 John Chambers <jc:trillian.mit.edu>
N: The use of alternate endings in the 2nd part but not the first is unusual,
N: and it makes as much sense to write the 1st part with alternate endings.
N: This may have been done to make the tune fit the page better.
M: C|
L: 1/8
K: Em
[|\
(vB,E)EF (GA)Bd | FDAF dFAF | (GF)EF (GA)Be | dBAF E/E/EE2 |
(B,E)EF (GA)Bd | FDAF dFAF | (GF)EF (GA)Bg | fdaf e/e/ee2 |]
|: (gf)ef (ga)bg | (fe)ef (fg)af |\
[1 (gf)ef (ga)bg | fdaf e/e/e (ef) :|2 (ge)f^d (eg)fe | dBAF "^D.C."E/E/E"Fine"E2 |]

%%sep 2 1 500

